X:1
T:How happy is the pilgrim’s lot
T:How happy is the pilgrim’s lot - Patmos (A. K. Williams)
C:A. K. Williams
Z:p57, The Sacred Herald,
Z:ed. W. J. White,
Z:London: [c1820]
%%score [ 1 2 3 4 ]
L:1/8
M:2/2
K:Bb
V:1 treble nm="Soprano" snm="S."
V:2 treble nm="Alto" snm="A."
V:3 treble-8 transpose=-12 nm="Tenor" snm="T."
V:4 bass nm="Bass" snm="B."
V:1
"^Lively" B4 d2 f2 | (e2 d2) (c2 B2) | (d2 c2) (B2 A2) | B6 F2 | (G3 A B2) B2 | (A3 B c2) c2 | %6
w: There is my|house _ and _|por- * tion _|fair; My|trea- * * sure|and _ _ my|
w: How hap- py|is _ the _|pil- * grim’s _|lot, How|free _ _ from|anx- * * ious|
w: No- thing on|earth _ I _|call _ my _|own: A|stran- * * ger,|to _ _ the|
 (B2 d2) (f2 d2) | (d4 c2) f2 | (=e2 f2) (F2 B2) | A4 G4 | F8 | c4 d2 e2 | (e2 d2) (d2 f2) | %13
w: heart _ are _|there, _ And|my _ a- *|bid- ing|home:|For me my|el- * der _|
w: care _ and _|thought, _ From|world- * ly _|care and|fear:|Con- fin’d to|nei- * ther _|
w: world _ un- *|known, _ I|all _ their _|goods de-|spise!|I tram- ple|on _ their _|
 (g2 e2) (c2 B2) | (B4 A2) F2 | e4 (d2 c2) | d4 (c2 B2) | A6 B2 | c6 F2 | G2 A2 (Bc)(de) | %20
w: breth- * ren _|stay; _ And|an- gels _|bec- kon _|me a-|way, And|Je- sus bids _ me _|
w: court _ nor _|cell, _ His|soul dis- *|dains on _|earth to|dwell; He|on- ly so- * journs _|
w: whole _ de- *|light, _ And|seek a _|coun- try _|out of|sight, A|coun- try in _ the _|
!<(! f8-!<)! |!>(! !fermata!f6!>)! d2 | (e2 d2) (c2 B2) | d4 c4 | B8 |] %25
w: come,|_ and|Je- * sus _|bids me|come.|
w: here,|_ he|on- * ly _|so- journs|here.|
w: skies,|_ a|coun- * try _|in the|skies.|
V:2
 F4 F2 F2 | F4 (F2 E2) | (F2 E2) (D2 C2) | D6 D2 | (G4 F2) F2 | [FA]6 [FA]2 | [FB]4 F4 | F6 A2 | %8
w: There is my|house and _|por- * tion _|fair; My|trea- * sure|and my|heart are|there, And|
w: How hap- py|is the _|pil- * grim’s _|lot, How|free _ from|anx- ious|care and|thought, From|
w: No- thing on|earth I _|call _ my _|own: A|stran- * ger,|to the|world un-|known, I|
 (G2 F2) F4 | F4 =E4 | F8 | F4 F2 A2 | (B2 F2) F4 | (E2 G2) G4 | F6 F2 | A4 F4 | F4 F4 | F6 F2 | %18
w: my _ a-|bid- ing|home:|For me my|el- * der|breth- * ren|stay; And|an- gels|bec- kon|me a-|
w: world- * ly|care and|fear:|Con- fin’d to|nei- * ther|court _ nor|cell, His|soul dis-|dains on|earth to|
w: all _ their|goods de-|spise!|I tram- ple|on _ their|whole _ de-|light, And|seek a|coun- try|out of|
 F6 z2 | z4 z2 F2 | F2 B2 B2 A2 | !fermata!B6 F2 | G4 F4 | F4 [EF]4 | [DF]8 |] %25
w: way,|And|Je- sus bids me|come, and|Je- sus|bids me|come.|
w: dwell;|He|on- ly so- journs|here, he|on- ly|so- journs|here.|
w: sight,|A|coun- try in the|skies, a|coun- try|in the|skies.|
V:3
 d4 d2 d2 | (c2 B2) (A2 B2) | (B2 G2) F4 | F6 B2 | (B3 c d2) d2 | (c3 d e2) e2 | d4 (c2 B2) | %7
w: There is my|house _ and _|por- * tion|fair; My|trea- * * sure|and _ _ my|heart are _|
w: How hap- py|is _ the _|pil- * grim’s|lot, How|free _ _ from|anx- * * ious|care and _|
w: No- thing on|earth _ I _|call _ my|own: A|stran- * * ger,|to _ _ the|world un- *|
 (B4 A2) c2 | c4 d4 | c4 [Bc]4 | [Ac]8 | A4 B2 c2 | B4 d4 | c4 (e2 d2) | (d4 c2) c2 | c4 (B2 A2) | %16
w: there, _ And|my a-|bid- ing|home:|For me my|el- der|breth- ren _|stay; _ And|an- gels _|
w: thought, _ From|world- ly|care and|fear:|Con- fin’d to|nei- ther|court nor _|cell, _ His|soul dis- *|
w: known, _ I|all their|goods de-|spise!|I tram- ple|on their|whole de- *|light, _ And|seek a _|
 B4 (e2 d2) | c6 B2 | A6 A2 | B2 c2 (dc)(Bc) |!<(! d8-!<)! |!>(! !fermata!d6!>)! B2 | B4 B4 | %23
w: bec- kon _|me a-|way, And|Je- sus bids _ me _|come,|_ and|Je- sus|
w: dains on _|earth to|dwell; He|on- ly so- * journs _|here,|_ he|on- ly|
w: coun- try _|out of|sight, A|coun- try in _ the _|skies,|_ a|coun- try|
 B4 A4 | B8 |] %25
w: bids me|come.|
w: so- journs|here.|
w: in the|skies.|
V:4
 B,4 B,2 B,2 | (A,2 B,2) (F,2 G,2) | (D,2 E,2) F,4 | B,,6 B,,2 | (E,4 D,2) B,,2 | F,6 F,2 | %6
w: There is my|house _ and _|por- * tion|fair; My|trea- * sure|and my|
w: How hap- py|is _ the _|pil- * grim’s|lot, How|free _ from|anx- ious|
w: No- thing on|earth _ I _|call _ my|own: A|stran- * ger,|to the|
 B,4 B,,4 | F,6 F,2 | (G,2 A,2) B,4 | C4 C,4 | F,8 | F,4 F,2 F,2 | B,4 B,4 | E,4 (E,2 =E,2) | %14
w: heart are|there, And|my _ a-|bid- ing|home:|For me my|el- der|breth- ren _|
w: care and|thought, From|world- * ly|care and|fear:|Con- fin’d to|nei- ther|court nor _|
w: world un-|known, I|all _ their|goods de-|spise!|I tram- ple|on their|whole de- *|
 F,6 F,2 | F,4 F,4 | [B,,B,]4 [B,,B,]4 | F,6 B,,2 | %18
w: stay; And|an- gels|bec- kon|me a-|
w: cell, His|soul dis-|dains on|earth to|
w: light, And|seek a|coun- try|out of|
"^Notes: The order of staves in the original is Tenor - Alto - Soprano - Bass, with the alto and tenor parts given an octaveabove sounding pitch. The Soprano and Bass staves are bracketed together and a keyboard accompaniment is indicatedbetween these parts with small notes: this keyboard accompaniment has been omitted from the present edition.In addition to the first verse of the text, which is given in the source, three further verses of the text have here beenunderlaid editorially." F,6 z2 | %19
w: way,|
w: dwell;|
w: sight,|
 z4 z2 F,2 | B,2 B,,2 D,2 F,2 | !fermata!B,6 B,2 | G,4 (A,2 B,2) | F,4 [F,,F,]4 | B,,8 |] %25
w: And|Je- sus bids me|come, and|Je- sus _|bids me|come.|
w: He|on- ly so- journs|here, he|on- ly _|so- journs|here.|
w: A|coun- try in the|skies, a|coun- try _|in the|skies.|

